X:1
T:Title
%%score ( 1 2 ) { 3 | 4 }
L:1/8
Q:1/4=110
M:4/4
K:Eb
V:1 treble nm="Grand Piano, Soprano"
V:2 treble 
V:3 bass nm="Choir Pad, Sing the Glorious Victory"
V:4 bass 
V:1
 [EB]2 [FB]2 [DB]2 [EB]2 | [Ec]2 [Ee][Ac] [GB]2 [Ge]2 | [Ac]2 [Ac]2 [GB]2 [EG]2 | %3
w: By~Alexcenah~Thomas * * *|||
 [FA]2 [EG]2 [DF]4 | [EG]2 [EF]2 E2 [EG]2 | [EB]2 [E_d]2 [Ed]2 [Ec]2 | [EB]2 [EG]2 [EG]2 E2 | %7
w: ||||
 [DF]2 [DB]2 E4 | [DF]2 [DF]2 [DF]2 [EG]2 | [FA]2 [DB]2 [FA]2 [EG]2 | [DF]2 [DF]2 [EG]2 [EB]2 | %11
w: ||||
 [Ec]2 dc [DB]4 | [EG]2 [DA]2 [EB]2 [EG]2 | [Ec]2 [Ed]2 [Ee]2 [Ec]2 | [EB]2 [DA]2 [EG]2 E2 | %15
w: ||||
 [CF]2 cB E4 | [DF]2 [DF][EG] [FA]2 [DF]2 | [EG]2 [EG][FA] [GB]2 [EG]2 | [Ac]2 [Ac]2 [GB]2 [EG]2 | %19
w: ||||
 [FA]2 [EG]2 [DF]4 | [EG]2 [EG][FA] [GB]2 [EG]2 | [Ac][GB][Ac][Bd] [ce]2 [Ac]2 | %22
w: |||
 [GB]2 [FA]2 [EG]2 E2 | [CF]2 cB E4- | E4 z4 |] %25
w: |||
V:2
 x8 | x8 | x8 | x8 | x8 | x8 | x8 | x8 | x8 | x8 | x8 | z2 E2 z4 | x8 | x8 | x8 | z2 D2 z4 | x8 | %17
 x8 | x8 | x8 | x8 | x8 | x8 | z2 D2 z4 | x8 |] %25
V:3
 G,2 B,2 A,2 G,2 | A,2[K:treble] CE E2 B,2 | E2 E2 E2[K:bass] B,2 | B,2 B,2 B,4 | B,2 A,2 G,2 B,2 | %5
 G,2 B,2 A,2 A,2 | G,2 B,2 B,2 G,2 | A,2 A,2 G,4 | B,2 B,2 B,2 B,2 | B,2 B,2 B,2 B,2 | %10
 B,2 B,2 B,2 B,2 | =A,2 A,2 B,4 | B,2 B,2 B,2 B,2 | A,2 B,2 C2 A,2 | B,2 B,2 B,2 C2 | C2 A,2 G,4 | %16
 z2 B,B, B,2 B,2 | z2 B,B, B,2 B,2 | E2 E2 E2 B,2 | B,2 B,2 A,4 | z2 B,B, B,2 B,2 | %21
 z2[K:treble] EE E2 E2 | E2 E2[K:bass] B,2 C2 | C2 A,2 G,4- | G,4 z4 |] %25
V:4
 E,2 D,2 B,,2 E,2 | z2 A,2 E,2 E,2 | E,2 E,2 E,2 E,2 | D,2 E,2 B,,4 | E,2 E,2 E,2 E,2 | %5
 E,2 G,2 z2 A,,2 | B,,2 B,,2 B,,2 B,,2 | B,,2 B,,2 E,4 | B,,2 B,,2 B,,2 B,,2 | B,,2 B,,2 E,2 E,2 | %10
 B,,2 B,,2 E,2 G,2 | F,2 F,2 B,,4 | E,2 F,2 G,2 E,2 | z2 A,2 A,2 z2 | G,2 F,2 E,2 C,2 | %15
 A,,2 B,,2 E,4 | z2 B,,B,, B,,2 B,,2 | z2 E,E, E,2 E,2 | E,2 E,2 E,2 E,2 | D,2 E,2 B,,4 | %20
 z2 E,E, E,2 E,2 | z2 A,A, A,2 A,2 | E,2 E,2 E,2 C,2 | A,,2 B,,2 E,4- | E,4 z4 |] %25

